assets/1. 1-F/2nd place medal/Color/2nd.Place.Medal-color.svg

<svg width="100%" height="100%" viewBox="0 0 32 32" fill="none" xmlns="http://www.w3.org/2000/svg">
<g filter="url(#filter0_iii_18_1566)">
<path d="M14.0346 3.55204L18.2991 10.8362L12.2834 12.5469C8.12828 11.172 5.68075 8.52904 4.20532 5.8125C3.58307 4.66681 3.58813 2.5625 6.06108 2.5625H12.3087C13.0189 2.5625 13.6758 2.93914 14.0346 3.55204Z" fill="#4686EC"/>
<path d="M14.0346 3.55204L18.2991 10.8362L12.2834 12.5469C8.12828 11.172 5.68075 8.52904 4.20532 5.8125C3.58307 4.66681 3.58813 2.5625 6.06108 2.5625H12.3087C13.0189 2.5625 13.6758 2.93914 14.0346 3.55204Z" fill="url(#paint0_radial_18_1566)"/>
<path d="M14.0346 3.55204L18.2991 10.8362L12.2834 12.5469C8.12828 11.172 5.68075 8.52904 4.20532 5.8125C3.58307 4.66681 3.58813 2.5625 6.06108 2.5625H12.3087C13.0189 2.5625 13.6758 2.93914 14.0346 3.55204Z" fill="url(#paint1_linear_18_1566)"/>
</g>
<g filter="url(#filter1_iii_18_1566)">
<path d="M17.8123 3.55204L13.5479 10.8362L19.5635 12.5469C23.7186 11.172 26.1662 8.52904 27.6416 5.8125C28.2639 4.66681 28.2588 2.5625 25.7858 2.5625H19.5383C18.828 2.5625 18.1711 2.93914 17.8123 3.55204Z" fill="#4686EC"/>
<path d="M17.8123 3.55204L13.5479 10.8362L19.5635 12.5469C23.7186 11.172 26.1662 8.52904 27.6416 5.8125C28.2639 4.66681 28.2588 2.5625 25.7858 2.5625H19.5383C18.828 2.5625 18.1711 2.93914 17.8123 3.55204Z" fill="url(#paint2_radial_18_1566)"/>
<path d="M17.8123 3.55204L13.5479 10.8362L19.5635 12.5469C23.7186 11.172 26.1662 8.52904 27.6416 5.8125C28.2639 4.66681 28.2588 2.5625 25.7858 2.5625H19.5383C18.828 2.5625 18.1711 2.93914 17.8123 3.55204Z" fill="url(#paint3_linear_18_1566)"/>
</g>
<path d="M17.8123 3.55204L13.5479 10.8362L19.5635 12.5469C23.7186 11.172 26.1662 8.52904 27.6416 5.8125C28.2639 4.66681 28.2588 2.5625 25.7858 2.5625H19.5383C18.828 2.5625 18.1711 2.93914 17.8123 3.55204Z" fill="url(#paint4_linear_18_1566)"/>
<circle cx="16.047" cy="20.1318" r="10.0477" fill="url(#paint5_linear_18_1566)"/>
<circle cx="16.047" cy="20.1318" r="10.0477" fill="url(#paint6_linear_18_1566)"/>
<circle cx="16.047" cy="20.1317" r="8.68832" fill="url(#paint7_linear_18_1566)"/>
<circle cx="16.047" cy="20.1317" r="7.58486" fill="url(#paint8_linear_18_1566)"/>
<circle cx="16.047" cy="20.1317" r="7.58486" fill="url(#paint9_radial_18_1566)"/>
<circle cx="16.047" cy="20.1317" r="7.58486" fill="url(#paint10_radial_18_1566)"/>
<circle cx="16.047" cy="20.1317" r="7.58486" fill="url(#paint11_radial_18_1566)"/>
<g filter="url(#filter2_ii_18_1566)">
<path d="M18.0368 24.5716H14.0668C13.6768 24.5716 13.3268 24.3517 13.1568 23.9917C12.9868 23.6417 13.0368 23.2216 13.2868 22.9216L16.5868 18.8716C16.8468 18.5516 16.7268 18.2116 16.6868 18.1116C16.6368 17.9916 16.4768 17.7216 16.1068 17.7116C16.0968 17.7116 16.0768 17.7116 16.0568 17.7116C15.7368 17.7116 15.4468 17.8616 15.2568 18.1216C14.9368 18.5716 14.3068 18.6816 13.8468 18.3616C13.3868 18.0416 13.2868 17.4116 13.6068 16.9516C14.1668 16.1616 15.0768 15.6917 16.0468 15.6917C16.0968 15.6917 16.1368 15.6917 16.1768 15.6917C17.1968 15.7417 18.0868 16.3516 18.5068 17.2816C18.9368 18.2416 18.7968 19.3316 18.1368 20.1416L16.1868 22.5416H18.0268C18.5868 22.5416 19.0368 22.9917 19.0368 23.5517C19.0368 24.1117 18.5968 24.5716 18.0368 24.5716Z" fill="#6A6372"/>
</g>
<defs>
<filter id="filter0_iii_18_1566" x="3.61035" y="2.3625" width="14.8887" height="10.4344" filterUnits="userSpaceOnUse" color-interpolation-filters="sRGB">
<feFlood flood-opacity="0" result="BackgroundImageFix"/>
<feBlend mode="normal" in="SourceGraphic" in2="BackgroundImageFix" result="shape"/>
<feColorMatrix in="SourceAlpha" type="matrix" values="0 0 0 0 0 0 0 0 0 0 0 0 0 0 0 0 0 0 127 0" result="hardAlpha"/>
<feOffset dx="-0.2" dy="-0.2"/>
<feGaussianBlur stdDeviation="0.2"/>
<feComposite in2="hardAlpha" operator="arithmetic" k2="-1" k3="1"/>
<feColorMatrix type="matrix" values="0 0 0 0 0.317647 0 0 0 0 0.458824 0 0 0 0 0.886275 0 0 0 1 0"/>
<feBlend mode="normal" in2="shape" result="effect1_innerShadow_18_1566"/>
<feColorMatrix in="SourceAlpha" type="matrix" values="0 0 0 0 0 0 0 0 0 0 0 0 0 0 0 0 0 0 127 0" result="hardAlpha"/>
<feOffset dx="0.2" dy="0.2"/>
<feGaussianBlur stdDeviation="0.2"/>
<feComposite in2="hardAlpha" operator="arithmetic" k2="-1" k3="1"/>
<feColorMatrix type="matrix" values="0 0 0 0 0.317647 0 0 0 0 0.458824 0 0 0 0 0.886275 0 0 0 1 0"/>
<feBlend mode="normal" in2="effect1_innerShadow_18_1566" result="effect2_innerShadow_18_1566"/>
<feColorMatrix in="SourceAlpha" type="matrix" values="0 0 0 0 0 0 0 0 0 0 0 0 0 0 0 0 0 0 127 0" result="hardAlpha"/>
<feOffset dx="-0.25" dy="0.25"/>
<feGaussianBlur stdDeviation="0.25"/>
<feComposite in2="hardAlpha" operator="arithmetic" k2="-1" k3="1"/>
<feColorMatrix type="matrix" values="0 0 0 0 0.372549 0 0 0 0 0.607843 0 0 0 0 0.960784 0 0 0 1 0"/>
<feBlend mode="normal" in2="effect2_innerShadow_18_1566" result="effect3_innerShadow_18_1566"/>
</filter>
<filter id="filter1_iii_18_1566" x="13.2979" y="2.3625" width="14.8887" height="10.4344" filterUnits="userSpaceOnUse" color-interpolation-filters="sRGB">
<feFlood flood-opacity="0" result="BackgroundImageFix"/>
<feBlend mode="normal" in="SourceGraphic" in2="BackgroundImageFix" result="shape"/>
<feColorMatrix in="SourceAlpha" type="matrix" values="0 0 0 0 0 0 0 0 0 0 0 0 0 0 0 0 0 0 127 0" result="hardAlpha"/>
<feOffset dx="-0.2" dy="-0.2"/>
<feGaussianBlur stdDeviation="0.2"/>
<feComposite in2="hardAlpha" operator="arithmetic" k2="-1" k3="1"/>
<feColorMatrix type="matrix" values="0 0 0 0 0.317647 0 0 0 0 0.458824 0 0 0 0 0.886275 0 0 0 1 0"/>
<feBlend mode="normal" in2="shape" result="effect1_innerShadow_18_1566"/>
<feColorMatrix in="SourceAlpha" type="matrix" values="0 0 0 0 0 0 0 0 0 0 0 0 0 0 0 0 0 0 127 0" result="hardAlpha"/>
<feOffset dx="0.2" dy="0.2"/>
<feGaussianBlur stdDeviation="0.2"/>
<feComposite in2="hardAlpha" operator="arithmetic" k2="-1" k3="1"/>
<feColorMatrix type="matrix" values="0 0 0 0 0.317647 0 0 0 0 0.458824 0 0 0 0 0.886275 0 0 0 1 0"/>
<feBlend mode="normal" in2="effect1_innerShadow_18_1566" result="effect2_innerShadow_18_1566"/>
<feColorMatrix in="SourceAlpha" type="matrix" values="0 0 0 0 0 0 0 0 0 0 0 0 0 0 0 0 0 0 127 0" result="hardAlpha"/>
<feOffset dx="-0.25" dy="0.25"/>
<feGaussianBlur stdDeviation="0.25"/>
<feComposite in2="hardAlpha" operator="arithmetic" k2="-1" k3="1"/>
<feColorMatrix type="matrix" values="0 0 0 0 0.372549 0 0 0 0 0.607843 0 0 0 0 0.960784 0 0 0 1 0"/>
<feBlend mode="normal" in2="effect2_innerShadow_18_1566" result="effect3_innerShadow_18_1566"/>
</filter>
<filter id="filter2_ii_18_1566" x="12.7571" y="15.4917" width="6.47974" height="9.38" filterUnits="userSpaceOnUse" color-interpolation-filters="sRGB">
<feFlood flood-opacity="0" result="BackgroundImageFix"/>
<feBlend mode="normal" in="SourceGraphic" in2="BackgroundImageFix" result="shape"/>
<feColorMatrix in="SourceAlpha" type="matrix" values="0 0 0 0 0 0 0 0 0 0 0 0 0 0 0 0 0 0 127 0" result="hardAlpha"/>
<feOffset dx="-0.3" dy="0.3"/>
<feGaussianBlur stdDeviation="0.3"/>
<feComposite in2="hardAlpha" operator="arithmetic" k2="-1" k3="1"/>
<feColorMatrix type="matrix" values="0 0 0 0 0.286275 0 0 0 0 0.223529 0 0 0 0 0.345098 0 0 0 1 0"/>
<feBlend mode="normal" in2="shape" result="effect1_innerShadow_18_1566"/>
<feColorMatrix in="SourceAlpha" type="matrix" values="0 0 0 0 0 0 0 0 0 0 0 0 0 0 0 0 0 0 127 0" result="hardAlpha"/>
<feOffset dx="0.2" dy="-0.2"/>
<feGaussianBlur stdDeviation="0.2"/>
<feComposite in2="hardAlpha" operator="arithmetic" k2="-1" k3="1"/>
<feColorMatrix type="matrix" values="0 0 0 0 0.482353 0 0 0 0 0.47451 0 0 0 0 0.490196 0 0 0 1 0"/>
<feBlend mode="normal" in2="effect1_innerShadow_18_1566" result="effect2_innerShadow_18_1566"/>
</filter>
<radialGradient id="paint0_radial_18_1566" cx="0" cy="0" r="1" gradientUnits="userSpaceOnUse" gradientTransform="translate(13.103 11.8416) rotate(-123.321) scale(4.60352 17.1923)">
<stop stop-color="#3669D9"/>
<stop offset="1" stop-color="#3669D9" stop-opacity="0"/>
</radialGradient>
<linearGradient id="paint1_linear_18_1566" x1="6.58184" y1="2.02319" x2="8.37699" y2="6.49275" gradientUnits="userSpaceOnUse">
<stop stop-color="#3D89EC"/>
<stop offset="1" stop-color="#3D89EC" stop-opacity="0"/>
</linearGradient>
<radialGradient id="paint2_radial_18_1566" cx="0" cy="0" r="1" gradientUnits="userSpaceOnUse" gradientTransform="translate(18.7439 11.8416) rotate(-57.2648) scale(3.0487 6.68733)">
<stop stop-color="#3669D9"/>
<stop offset="1" stop-color="#3669D9" stop-opacity="0"/>
</radialGradient>
<linearGradient id="paint3_linear_18_1566" x1="25.2651" y1="2.02319" x2="23.4699" y2="6.49275" gradientUnits="userSpaceOnUse">
<stop stop-color="#3D89EC"/>
<stop offset="1" stop-color="#3D89EC" stop-opacity="0"/>
</linearGradient>
<linearGradient id="paint4_linear_18_1566" x1="15.7486" y1="7.06334" x2="16.0863" y2="7.24966" gradientUnits="userSpaceOnUse">
<stop stop-color="#1A6DD8"/>
<stop offset="1" stop-color="#1A6DD8" stop-opacity="0"/>
</linearGradient>
<linearGradient id="paint5_linear_18_1566" x1="23.797" y1="14.9375" x2="14.4495" y2="23.4842" gradientUnits="userSpaceOnUse">
<stop stop-color="#EFEAF6"/>
<stop offset="1" stop-color="#B5A8C3"/>
</linearGradient>
<linearGradient id="paint6_linear_18_1566" x1="12.5359" y1="30.6677" x2="14.802" y2="17.5275" gradientUnits="userSpaceOnUse">
<stop stop-color="#D0A9F4"/>
<stop offset="1" stop-color="#D0A9F4" stop-opacity="0"/>
</linearGradient>
<linearGradient id="paint7_linear_18_1566" x1="23.9633" y1="18.6135" x2="16.047" y2="18.6135" gradientUnits="userSpaceOnUse">
<stop stop-color="#D3C6E2"/>
<stop offset="1" stop-color="#D6C6E8"/>
</linearGradient>
<linearGradient id="paint8_linear_18_1566" x1="11.2863" y1="22.1026" x2="23.9093" y2="18.2831" gradientUnits="userSpaceOnUse">
<stop stop-color="#E0D3EF"/>
<stop offset="1" stop-color="#C1B0D4"/>
</linearGradient>
<radialGradient id="paint9_radial_18_1566" cx="0" cy="0" r="1" gradientUnits="userSpaceOnUse" gradientTransform="translate(18.9253 18.9818) rotate(156.644) scale(11.397 9.71148)">
<stop offset="0.837399" stop-color="#F6ECFE" stop-opacity="0"/>
<stop offset="1" stop-color="#F6ECFE"/>
</radialGradient>
<radialGradient id="paint10_radial_18_1566" cx="0" cy="0" r="1" gradientUnits="userSpaceOnUse" gradientTransform="translate(15.0782 21.0313) rotate(-41.2938) scale(8.96398 8.60716)">
<stop offset="0.909611" stop-color="#B396CF" stop-opacity="0"/>
<stop offset="0.991989" stop-color="#B796D5"/>
</radialGradient>
<radialGradient id="paint11_radial_18_1566" cx="0" cy="0" r="1" gradientUnits="userSpaceOnUse" gradientTransform="translate(15.8282 19.5) rotate(37.9308) scale(8.43895 9.56333)">
<stop offset="0.925972" stop-color="#AB9CBB" stop-opacity="0"/>
<stop offset="1" stop-color="#AB9CBB"/>
</radialGradient>
</defs>
</svg>

<svg width="100%" height="100%" viewBox="0 0 32 32" xmlns="http://www.w3.org/2000/svg"><g filter="url(#a)"><path fill="#4686EC" d="m14.035 3.552 4.264 7.284-6.016 1.71C8.128 11.173 5.681 8.53 4.205 5.814c-.622-1.146-.617-3.25 1.856-3.25h6.248a2 2 0 0 1 1.726.989"/><path fill="url(#b)" d="m14.035 3.552 4.264 7.284-6.016 1.71C8.128 11.173 5.681 8.53 4.205 5.814c-.622-1.146-.617-3.25 1.856-3.25h6.248a2 2 0 0 1 1.726.989"/><path fill="url(#c)" d="m14.035 3.552 4.264 7.284-6.016 1.71C8.128 11.173 5.681 8.53 4.205 5.814c-.622-1.146-.617-3.25 1.856-3.25h6.248a2 2 0 0 1 1.726.989"/></g><g filter="url(#d)"><path fill="#4686EC" d="m17.812 3.552-4.264 7.284 6.016 1.71c4.155-1.374 6.602-4.017 8.078-6.733.622-1.146.617-3.25-1.856-3.25h-6.248a2 2 0 0 0-1.726.989"/><path fill="url(#e)" d="m17.812 3.552-4.264 7.284 6.016 1.71c4.155-1.374 6.602-4.017 8.078-6.733.622-1.146.617-3.25-1.856-3.25h-6.248a2 2 0 0 0-1.726.989"/><path fill="url(#f)" d="m17.812 3.552-4.264 7.284 6.016 1.71c4.155-1.374 6.602-4.017 8.078-6.733.622-1.146.617-3.25-1.856-3.25h-6.248a2 2 0 0 0-1.726.989"/></g><path fill="url(#g)" d="m17.812 3.552-4.264 7.284 6.016 1.71c4.155-1.374 6.602-4.017 8.078-6.733.622-1.146.617-3.25-1.856-3.25h-6.248a2 2 0 0 0-1.726.989"/><circle cx="16.047" cy="20.132" r="10.048" fill="url(#h)"/><circle cx="16.047" cy="20.132" r="10.048" fill="url(#i)"/><circle cx="16.047" cy="20.132" r="8.688" fill="url(#j)"/><circle cx="16.047" cy="20.132" r="7.585" fill="url(#k)"/><circle cx="16.047" cy="20.132" r="7.585" fill="url(#l)"/><circle cx="16.047" cy="20.132" r="7.585" fill="url(#m)"/><circle cx="16.047" cy="20.132" r="7.585" fill="url(#n)"/><g filter="url(#o)"><path fill="#6A6372" d="M18.037 24.572h-3.97a1 1 0 0 1-.91-.58 1 1 0 0 1 .13-1.07l3.3-4.05c.26-.32.14-.66.1-.76a.64.64 0 0 0-.58-.4h-.05c-.32 0-.61.15-.8.41-.32.45-.95.56-1.41.24a1.01 1.01 0 0 1-.24-1.41c.56-.79 1.47-1.26 2.44-1.26h.13c1.02.05 1.91.66 2.33 1.59.43.96.29 2.05-.37 2.86l-1.95 2.4h1.84c.56 0 1.01.45 1.01 1.01s-.44 1.02-1 1.02"/></g><defs><linearGradient id="c" x1="6.582" x2="8.377" y1="2.023" y2="6.493" gradientUnits="userSpaceOnUse"><stop stop-color="#3D89EC"/><stop offset="1" stop-color="#3D89EC" stop-opacity="0"/></linearGradient><linearGradient id="f" x1="25.265" x2="23.47" y1="2.023" y2="6.493" gradientUnits="userSpaceOnUse"><stop stop-color="#3D89EC"/><stop offset="1" stop-color="#3D89EC" stop-opacity="0"/></linearGradient><linearGradient id="g" x1="15.749" x2="16.086" y1="7.063" y2="7.25" gradientUnits="userSpaceOnUse"><stop stop-color="#1A6DD8"/><stop offset="1" stop-color="#1A6DD8" stop-opacity="0"/></linearGradient><linearGradient id="h" x1="23.797" x2="14.45" y1="14.938" y2="23.484" gradientUnits="userSpaceOnUse"><stop stop-color="#EFEAF6"/><stop offset="1" stop-color="#B5A8C3"/></linearGradient><linearGradient id="i" x1="12.536" x2="14.802" y1="30.668" y2="17.527" gradientUnits="userSpaceOnUse"><stop stop-color="#D0A9F4"/><stop offset="1" stop-color="#D0A9F4" stop-opacity="0"/></linearGradient><linearGradient id="j" x1="23.963" x2="16.047" y1="18.613" y2="18.613" gradientUnits="userSpaceOnUse"><stop stop-color="#D3C6E2"/><stop offset="1" stop-color="#D6C6E8"/></linearGradient><linearGradient id="k" x1="11.286" x2="23.909" y1="22.103" y2="18.283" gradientUnits="userSpaceOnUse"><stop stop-color="#E0D3EF"/><stop offset="1" stop-color="#C1B0D4"/></linearGradient><radialGradient id="b" cx="0" cy="0" r="1" gradientTransform="rotate(-123.321 9.745 2.387)scale(4.60352 17.1923)" gradientUnits="userSpaceOnUse"><stop stop-color="#3669D9"/><stop offset="1" stop-color="#3669D9" stop-opacity="0"/></radialGradient><radialGradient id="e" cx="0" cy="0" r="1" gradientTransform="rotate(-57.265 20.217 -11.245)scale(3.0487 6.68733)" gradientUnits="userSpaceOnUse"><stop stop-color="#3669D9"/><stop offset="1" stop-color="#3669D9" stop-opacity="0"/></radialGradient><radialGradient id="l" cx="0" cy="0" r="1" gradientTransform="rotate(156.644 7.501 11.447)scale(11.397 9.71148)" gradientUnits="userSpaceOnUse"><stop offset=".837" stop-color="#F6ECFE" stop-opacity="0"/><stop offset="1" stop-color="#F6ECFE"/></radialGradient><radialGradient id="m" cx="0" cy="0" r="1" gradientTransform="rotate(-41.294 35.446 -9.492)scale(8.96398 8.60716)" gradientUnits="userSpaceOnUse"><stop offset=".91" stop-color="#B396CF" stop-opacity="0"/><stop offset=".992" stop-color="#B796D5"/></radialGradient><radialGradient id="n" cx="0" cy="0" r="1" gradientTransform="matrix(6.65625 5.1875 -5.87867 7.54311 15.828 19.5)" gradientUnits="userSpaceOnUse"><stop offset=".926" stop-color="#AB9CBB" stop-opacity="0"/><stop offset="1" stop-color="#AB9CBB"/></radialGradient><filter id="a" width="14.889" height="10.434" x="3.61" y="2.362" color-interpolation-filters="sRGB" filterUnits="userSpaceOnUse"><feFlood flood-opacity="0" result="BackgroundImageFix"/><feBlend in="SourceGraphic" in2="BackgroundImageFix" result="shape"/><feColorMatrix in="SourceAlpha" result="hardAlpha" values="0 0 0 0 0 0 0 0 0 0 0 0 0 0 0 0 0 0 127 0"/><feOffset dx="-.2" dy="-.2"/><feGaussianBlur stdDeviation=".2"/><feComposite in2="hardAlpha" k2="-1" k3="1" operator="arithmetic"/><feColorMatrix values="0 0 0 0 0.317647 0 0 0 0 0.458824 0 0 0 0 0.886275 0 0 0 1 0"/><feBlend in2="shape" result="effect1_innerShadow_18_1566"/><feColorMatrix in="SourceAlpha" result="hardAlpha" values="0 0 0 0 0 0 0 0 0 0 0 0 0 0 0 0 0 0 127 0"/><feOffset dx=".2" dy=".2"/><feGaussianBlur stdDeviation=".2"/><feComposite in2="hardAlpha" k2="-1" k3="1" operator="arithmetic"/><feColorMatrix values="0 0 0 0 0.317647 0 0 0 0 0.458824 0 0 0 0 0.886275 0 0 0 1 0"/><feBlend in2="effect1_innerShadow_18_1566" result="effect2_innerShadow_18_1566"/><feColorMatrix in="SourceAlpha" result="hardAlpha" values="0 0 0 0 0 0 0 0 0 0 0 0 0 0 0 0 0 0 127 0"/><feOffset dx="-.25" dy=".25"/><feGaussianBlur stdDeviation=".25"/><feComposite in2="hardAlpha" k2="-1" k3="1" operator="arithmetic"/><feColorMatrix values="0 0 0 0 0.372549 0 0 0 0 0.607843 0 0 0 0 0.960784 0 0 0 1 0"/><feBlend in2="effect2_innerShadow_18_1566" result="effect3_innerShadow_18_1566"/></filter><filter id="d" width="14.889" height="10.434" x="13.298" y="2.362" color-interpolation-filters="sRGB" filterUnits="userSpaceOnUse"><feFlood flood-opacity="0" result="BackgroundImageFix"/><feBlend in="SourceGraphic" in2="BackgroundImageFix" result="shape"/><feColorMatrix in="SourceAlpha" result="hardAlpha" values="0 0 0 0 0 0 0 0 0 0 0 0 0 0 0 0 0 0 127 0"/><feOffset dx="-.2" dy="-.2"/><feGaussianBlur stdDeviation=".2"/><feComposite in2="hardAlpha" k2="-1" k3="1" operator="arithmetic"/><feColorMatrix values="0 0 0 0 0.317647 0 0 0 0 0.458824 0 0 0 0 0.886275 0 0 0 1 0"/><feBlend in2="shape" result="effect1_innerShadow_18_1566"/><feColorMatrix in="SourceAlpha" result="hardAlpha" values="0 0 0 0 0 0 0 0 0 0 0 0 0 0 0 0 0 0 127 0"/><feOffset dx=".2" dy=".2"/><feGaussianBlur stdDeviation=".2"/><feComposite in2="hardAlpha" k2="-1" k3="1" operator="arithmetic"/><feColorMatrix values="0 0 0 0 0.317647 0 0 0 0 0.458824 0 0 0 0 0.886275 0 0 0 1 0"/><feBlend in2="effect1_innerShadow_18_1566" result="effect2_innerShadow_18_1566"/><feColorMatrix in="SourceAlpha" result="hardAlpha" values="0 0 0 0 0 0 0 0 0 0 0 0 0 0 0 0 0 0 127 0"/><feOffset dx="-.25" dy=".25"/><feGaussianBlur stdDeviation=".25"/><feComposite in2="hardAlpha" k2="-1" k3="1" operator="arithmetic"/><feColorMatrix values="0 0 0 0 0.372549 0 0 0 0 0.607843 0 0 0 0 0.960784 0 0 0 1 0"/><feBlend in2="effect2_innerShadow_18_1566" result="effect3_innerShadow_18_1566"/></filter><filter id="o" width="6.48" height="9.38" x="12.757" y="15.492" color-interpolation-filters="sRGB" filterUnits="userSpaceOnUse"><feFlood flood-opacity="0" result="BackgroundImageFix"/><feBlend in="SourceGraphic" in2="BackgroundImageFix" result="shape"/><feColorMatrix in="SourceAlpha" result="hardAlpha" values="0 0 0 0 0 0 0 0 0 0 0 0 0 0 0 0 0 0 127 0"/><feOffset dx="-.3" dy=".3"/><feGaussianBlur stdDeviation=".3"/><feComposite in2="hardAlpha" k2="-1" k3="1" operator="arithmetic"/><feColorMatrix values="0 0 0 0 0.286275 0 0 0 0 0.223529 0 0 0 0 0.345098 0 0 0 1 0"/><feBlend in2="shape" result="effect1_innerShadow_18_1566"/><feColorMatrix in="SourceAlpha" result="hardAlpha" values="0 0 0 0 0 0 0 0 0 0 0 0 0 0 0 0 0 0 127 0"/><feOffset dx=".2" dy="-.2"/><feGaussianBlur stdDeviation=".2"/><feComposite in2="hardAlpha" k2="-1" k3="1" operator="arithmetic"/><feColorMatrix values="0 0 0 0 0.482353 0 0 0 0 0.47451 0 0 0 0 0.490196 0 0 0 1 0"/><feBlend in2="effect1_innerShadow_18_1566" result="effect2_innerShadow_18_1566"/></filter></defs></svg>
